assets/icons/quiz-true-false.svg

<svg width="32" height="32" viewBox="0 0 32 32" fill="none" xmlns="http://www.w3.org/2000/svg">
<rect width="32" height="32" rx="4" fill="#C9E3FF"/>
<path d="M15.45 15.9975C15.45 18.5229 13.4028 20.5701 10.8773 20.5701C8.35194 20.5701 6.30469 18.5229 6.30469 15.9975C6.30469 13.4721 8.35194 11.4248 10.8773 11.4248C13.4028 11.4248 15.45 13.4721 15.45 15.9975Z" fill="#0049F8"/>
<path d="M17.1363 20.0501C16.8916 19.8054 16.8916 19.4086 17.1363 19.1639L24.3591 11.9411C24.6038 11.6964 25.0006 11.6964 25.2453 11.9411C25.49 12.1859 25.49 12.5826 25.2453 12.8274L18.0226 20.0501C17.7778 20.2948 17.3811 20.2948 17.1363 20.0501Z" fill="#0049F8"/>
<path d="M17.1335 11.9382C17.3782 11.6935 17.775 11.6935 18.0197 11.9382L25.2425 19.161C25.4872 19.4057 25.4872 19.8025 25.2425 20.0472C24.9978 20.2919 24.601 20.2919 24.3563 20.0472L17.1335 12.8245C16.8888 12.5797 16.8888 12.183 17.1335 11.9382Z" fill="#0049F8"/>
</svg>

<svg xmlns="http://www.w3.org/2000/svg" width="32" height="32" fill="none" viewBox="0 0 32 32"><rect width="32" height="32" fill="#C9E3FF" rx="4"/><path fill="#0049F8" d="M15.45 15.998a4.573 4.573 0 1 1-9.145 0 4.573 4.573 0 0 1 9.145 0ZM17.136 20.05a.627.627 0 0 1 0-.886l7.223-7.223a.627.627 0 1 1 .886.886l-7.222 7.223a.627.627 0 0 1-.887 0Z"/><path fill="#0049F8" d="M17.134 11.938a.627.627 0 0 1 .886 0l7.223 7.223a.627.627 0 0 1-.887.886l-7.223-7.223a.627.627 0 0 1 0-.886Z"/></svg>
